public/img/meet-your-growth-partner.svg

<svg width="199" height="13" viewBox="0 0 199 13" fill="none" xmlns="http://www.w3.org/2000/svg">
<path d="M0.278409 0.363636H2.40909L6.11364 9.40909H6.25L9.95455 0.363636H12.0852V12H10.4148V3.57955H10.3068L6.875 11.983H5.48864L2.05682 3.57386H1.94886V12H0.278409V0.363636ZM18.2628 12.1761C17.4029 12.1761 16.6624 11.9924 16.0412 11.625C15.4238 11.2538 14.9465 10.733 14.6094 10.0625C14.276 9.38826 14.1094 8.59848 14.1094 7.69318C14.1094 6.79924 14.276 6.01136 14.6094 5.32955C14.9465 4.64773 15.4162 4.11553 16.0185 3.73295C16.6245 3.35038 17.3329 3.15909 18.1435 3.15909C18.6359 3.15909 19.1132 3.24053 19.5753 3.40341C20.0374 3.56629 20.4522 3.82197 20.8196 4.17045C21.187 4.51894 21.4768 4.97159 21.6889 5.52841C21.901 6.08144 22.0071 6.75379 22.0071 7.54545V8.14773H15.0696V6.875H20.3423C20.3423 6.42803 20.2514 6.0322 20.0696 5.6875C19.8878 5.33902 19.6321 5.06439 19.3026 4.86364C18.9768 4.66288 18.5942 4.5625 18.1548 4.5625C17.6776 4.5625 17.2609 4.67992 16.9048 4.91477C16.5526 5.14583 16.2798 5.44886 16.0866 5.82386C15.8973 6.19508 15.8026 6.59848 15.8026 7.03409V8.02841C15.8026 8.61174 15.9048 9.10795 16.1094 9.51705C16.3177 9.92614 16.6075 10.2386 16.9787 10.4545C17.3499 10.6667 17.7836 10.7727 18.2798 10.7727C18.6018 10.7727 18.8954 10.7273 19.1605 10.6364C19.4257 10.5417 19.6548 10.4015 19.848 10.2159C20.0412 10.0303 20.1889 9.80114 20.2912 9.52841L21.8991 9.81818C21.7704 10.2917 21.5393 10.7064 21.206 11.0625C20.8764 11.4148 20.4616 11.6894 19.9616 11.8864C19.4654 12.0795 18.8991 12.1761 18.2628 12.1761ZM27.6534 12.1761C26.7936 12.1761 26.053 11.9924 25.4318 11.625C24.8144 11.2538 24.3371 10.733 24 10.0625C23.6667 9.38826 23.5 8.59848 23.5 7.69318C23.5 6.79924 23.6667 6.01136 24 5.32955C24.3371 4.64773 24.8068 4.11553 25.4091 3.73295C26.0152 3.35038 26.7235 3.15909 27.5341 3.15909C28.0265 3.15909 28.5038 3.24053 28.9659 3.40341C29.428 3.56629 29.8428 3.82197 30.2102 4.17045C30.5777 4.51894 30.8674 4.97159 31.0795 5.52841C31.2917 6.08144 31.3977 6.75379 31.3977 7.54545V8.14773H24.4602V6.875H29.733C29.733 6.42803 29.642 6.0322 29.4602 5.6875C29.2784 5.33902 29.0227 5.06439 28.6932 4.86364C28.3674 4.66288 27.9848 4.5625 27.5455 4.5625C27.0682 4.5625 26.6515 4.67992 26.2955 4.91477C25.9432 5.14583 25.6705 5.44886 25.4773 5.82386C25.2879 6.19508 25.1932 6.59848 25.1932 7.03409V8.02841C25.1932 8.61174 25.2955 9.10795 25.5 9.51705C25.7083 9.92614 25.9981 10.2386 26.3693 10.4545C26.7405 10.6667 27.1742 10.7727 27.6705 10.7727C27.9924 10.7727 28.286 10.7273 28.5511 10.6364C28.8163 10.5417 29.0455 10.4015 29.2386 10.2159C29.4318 10.0303 29.5795 9.80114 29.6818 9.52841L31.2898 9.81818C31.161 10.2917 30.9299 10.7064 30.5966 11.0625C30.267 11.4148 29.8523 11.6894 29.3523 11.8864C28.8561 12.0795 28.2898 12.1761 27.6534 12.1761ZM37.3565 3.27273V4.63636H32.5895V3.27273H37.3565ZM33.8679 1.18182H35.5668V9.4375C35.5668 9.76705 35.616 10.0152 35.7145 10.1818C35.813 10.3447 35.9399 10.4564 36.0952 10.517C36.2543 10.5739 36.4266 10.6023 36.6122 10.6023C36.7486 10.6023 36.8679 10.5928 36.9702 10.5739C37.0724 10.5549 37.152 10.5398 37.2088 10.5284L37.5156 11.9318C37.4171 11.9697 37.277 12.0076 37.0952 12.0455C36.9134 12.0871 36.6861 12.1098 36.4134 12.1136C35.9664 12.1212 35.5497 12.0417 35.1634 11.875C34.777 11.7083 34.4645 11.4508 34.2259 11.1023C33.9872 10.7538 33.8679 10.3163 33.8679 9.78977V1.18182ZM42.7088 0.363636H44.7031L47.7429 5.65341H47.8679L50.9077 0.363636H52.902L48.6804 7.43182V12H46.9304V7.43182L42.7088 0.363636ZM56.6619 12.1761C55.8438 12.1761 55.1297 11.9886 54.5199 11.6136C53.91 11.2386 53.4366 10.714 53.0994 10.0398C52.7623 9.36553 52.5938 8.57765 52.5938 7.67614C52.5938 6.77083 52.7623 5.97917 53.0994 5.30114C53.4366 4.62311 53.91 4.09659 54.5199 3.72159C55.1297 3.34659 55.8438 3.15909 56.6619 3.15909C57.4801 3.15909 58.1941 3.34659 58.804 3.72159C59.4138 4.09659 59.8873 4.62311 60.2244 5.30114C60.5616 5.97917 60.7301 6.77083 60.7301 7.67614C60.7301 8.57765 60.5616 9.36553 60.2244 10.0398C59.8873 10.714 59.4138 11.2386 58.804 11.6136C58.1941 11.9886 57.4801 12.1761 56.6619 12.1761ZM56.6676 10.75C57.1979 10.75 57.6373 10.6098 57.9858 10.3295C58.3343 10.0492 58.5919 9.67614 58.7585 9.21023C58.929 8.74432 59.0142 8.23106 59.0142 7.67045C59.0142 7.11364 58.929 6.60227 58.7585 6.13636C58.5919 5.66667 58.3343 5.28977 57.9858 5.00568C57.6373 4.72159 57.1979 4.57955 56.6676 4.57955C56.1335 4.57955 55.6903 4.72159 55.3381 5.00568C54.9896 5.28977 54.7301 5.66667 54.5597 6.13636C54.393 6.60227 54.3097 7.11364 54.3097 7.67045C54.3097 8.23106 54.393 8.74432 54.5597 9.21023C54.7301 9.67614 54.9896 10.0492 55.3381 10.3295C55.6903 10.6098 56.1335 10.75 56.6676 10.75ZM68.1548 8.38068V3.27273H69.8594V12H68.1889V10.4886H68.098C67.8973 10.9545 67.5753 11.3428 67.1321 11.6534C66.6927 11.9602 66.1454 12.1136 65.4901 12.1136C64.9295 12.1136 64.4332 11.9905 64.0014 11.7443C63.5734 11.4943 63.2363 11.125 62.9901 10.6364C62.7476 10.1477 62.6264 9.54356 62.6264 8.82386V3.27273H64.3253V8.61932C64.3253 9.21402 64.4901 9.6875 64.8196 10.0398C65.1491 10.392 65.5772 10.5682 66.1037 10.5682C66.4219 10.5682 66.7382 10.4886 67.0526 10.3295C67.3707 10.1705 67.634 9.92992 67.8423 9.60795C68.0545 9.28598 68.1586 8.87689 68.1548 8.38068ZM72.142 12V3.27273H73.7841V4.65909H73.875C74.0341 4.18939 74.3144 3.82008 74.7159 3.55114C75.1212 3.27841 75.5795 3.14205 76.0909 3.14205C76.197 3.14205 76.322 3.14583 76.4659 3.15341C76.6136 3.16098 76.7292 3.17045 76.8125 3.18182V4.80682C76.7443 4.78788 76.6231 4.76705 76.4489 4.74432C76.2746 4.7178 76.1004 4.70455 75.9261 4.70455C75.5246 4.70455 75.1667 4.78977 74.8523 4.96023C74.5417 5.12689 74.2955 5.35985 74.1136 5.65909C73.9318 5.95455 73.8409 6.29167 73.8409 6.67045V12H72.142ZM90.5284 4.03977C90.4186 3.69508 90.2708 3.38636 90.0852 3.11364C89.9034 2.83712 89.6856 2.60227 89.4318 2.40909C89.178 2.21212 88.8883 2.0625 88.5625 1.96023C88.2405 1.85795 87.8864 1.80682 87.5 1.80682C86.8447 1.80682 86.2538 1.97538 85.7273 2.3125C85.2008 2.64962 84.7841 3.14394 84.4773 3.79545C84.1742 4.44318 84.0227 5.23674 84.0227 6.17614C84.0227 7.11932 84.1761 7.91667 84.483 8.56818C84.7898 9.2197 85.2102 9.71402 85.7443 10.0511C86.2784 10.3883 86.8864 10.5568 87.5682 10.5568C88.2008 10.5568 88.7519 10.428 89.2216 10.1705C89.6951 9.91288 90.0606 9.54924 90.3182 9.07955C90.5795 8.60606 90.7102 8.04924 90.7102 7.40909L91.1648 7.49432H87.8352V6.04545H92.4091V7.36932C92.4091 8.34659 92.2008 9.19508 91.7841 9.91477C91.3712 10.6307 90.7992 11.1837 90.0682 11.5739C89.3409 11.964 88.5076 12.1591 87.5682 12.1591C86.5152 12.1591 85.5909 11.9167 84.7955 11.4318C84.0038 10.947 83.3864 10.2595 82.9432 9.36932C82.5 8.47538 82.2784 7.41477 82.2784 6.1875C82.2784 5.25947 82.4072 4.42614 82.6648 3.6875C82.9223 2.94886 83.2841 2.32197 83.75 1.80682C84.2197 1.28788 84.7708 0.892045 85.4034 0.619318C86.0398 0.342803 86.7348 0.204545 87.4886 0.204545C88.1174 0.204545 88.7027 0.297348 89.2443 0.482954C89.7898 0.66856 90.2746 0.931818 90.6989 1.27273C91.1269 1.61364 91.4811 2.01894 91.7614 2.48864C92.0417 2.95455 92.2311 3.47159 92.3295 4.03977H90.5284ZM94.5014 12V3.27273H96.1435V4.65909H96.2344C96.3935 4.18939 96.6738 3.82008 97.0753 3.55114C97.4806 3.27841 97.9389 3.14205 98.4503 3.14205C98.5563 3.14205 98.6813 3.14583 98.8253 3.15341C98.973 3.16098 99.0885 3.17045 99.1719 3.18182V4.80682C99.1037 4.78788 98.9825 4.76705 98.8082 4.74432C98.634 4.7178 98.4598 4.70455 98.2855 4.70455C97.884 4.70455 97.526 4.78977 97.2116 4.96023C96.901 5.12689 96.6548 5.35985 96.473 5.65909C96.2912 5.95455 96.2003 6.29167 96.2003 6.67045V12H94.5014ZM104.006 12.1761C103.188 12.1761 102.473 11.9886 101.864 11.6136C101.254 11.2386 100.78 10.714 100.443 10.0398C100.106 9.36553 99.9375 8.57765 99.9375 7.67614C99.9375 6.77083 100.106 5.97917 100.443 5.30114C100.78 4.62311 101.254 4.09659 101.864 3.72159C102.473 3.34659 103.188 3.15909 104.006 3.15909C104.824 3.15909 105.538 3.34659 106.148 3.72159C106.758 4.09659 107.231 4.62311 107.568 5.30114C107.905 5.97917 108.074 6.77083 108.074 7.67614C108.074 8.57765 107.905 9.36553 107.568 10.0398C107.231 10.714 106.758 11.2386 106.148 11.6136C105.538 11.9886 104.824 12.1761 104.006 12.1761ZM104.011 10.75C104.542 10.75 104.981 10.6098 105.33 10.3295C105.678 10.0492 105.936 9.67614 106.102 9.21023C106.273 8.74432 106.358 8.23106 106.358 7.67045C106.358 7.11364 106.273 6.60227 106.102 6.13636C105.936 5.66667 105.678 5.28977 105.33 5.00568C104.981 4.72159 104.542 4.57955 104.011 4.57955C103.477 4.57955 103.034 4.72159 102.682 5.00568C102.333 5.28977 102.074 5.66667 101.903 6.13636C101.737 6.60227 101.653 7.11364 101.653 7.67045C101.653 8.23106 101.737 8.74432 101.903 9.21023C102.074 9.67614 102.333 10.0492 102.682 10.3295C103.034 10.6098 103.477 10.75 104.011 10.75ZM111.597 12L109.028 3.27273H110.784L112.494 9.68182H112.58L114.295 3.27273H116.051L117.756 9.65341H117.841L119.54 3.27273H121.295L118.733 12H117L115.227 5.69886H115.097L113.324 12H111.597ZM126.982 3.27273V4.63636H122.214V3.27273H126.982ZM123.493 1.18182H125.192V9.4375C125.192 9.76705 125.241 10.0152 125.339 10.1818C125.438 10.3447 125.565 10.4564 125.72 10.517C125.879 10.5739 126.052 10.6023 126.237 10.6023C126.374 10.6023 126.493 10.5928 126.595 10.5739C126.697 10.5549 126.777 10.5398 126.834 10.5284L127.141 11.9318C127.042 11.9697 126.902 12.0076 126.72 12.0455C126.538 12.0871 126.311 12.1098 126.038 12.1136C125.591 12.1212 125.175 12.0417 124.788 11.875C124.402 11.7083 124.089 11.4508 123.851 11.1023C123.612 10.7538 123.493 10.3163 123.493 9.78977V1.18182ZM130.747 6.81818V12H129.048V0.363636H130.724V4.69318H130.832C131.037 4.22348 131.349 3.85038 131.77 3.57386C132.19 3.29735 132.74 3.15909 133.418 3.15909C134.016 3.15909 134.539 3.2822 134.986 3.52841C135.437 3.77462 135.785 4.14205 136.031 4.63068C136.281 5.11553 136.406 5.72159 136.406 6.44886V12H134.707V6.65341C134.707 6.01326 134.543 5.51705 134.213 5.16477C133.884 4.80871 133.425 4.63068 132.838 4.63068C132.437 4.63068 132.077 4.71591 131.759 4.88636C131.444 5.05682 131.196 5.30682 131.014 5.63636C130.836 5.96212 130.747 6.35606 130.747 6.81818ZM143.044 12V0.363636H147.192C148.097 0.363636 148.847 0.528409 149.442 0.857954C150.036 1.1875 150.482 1.63826 150.777 2.21023C151.072 2.77841 151.22 3.41856 151.22 4.13068C151.22 4.84659 151.071 5.49053 150.771 6.0625C150.476 6.63068 150.029 7.08144 149.43 7.41477C148.836 7.74432 148.088 7.90909 147.186 7.90909H144.334V6.42045H147.027C147.599 6.42045 148.063 6.32197 148.419 6.125C148.775 5.92424 149.036 5.65152 149.203 5.30682C149.37 4.96212 149.453 4.57008 149.453 4.13068C149.453 3.69129 149.37 3.30114 149.203 2.96023C149.036 2.61932 148.773 2.35227 148.413 2.15909C148.057 1.96591 147.588 1.86932 147.004 1.86932H144.8V12H143.044ZM155.604 12.1932C155.051 12.1932 154.551 12.0909 154.104 11.8864C153.657 11.678 153.303 11.3769 153.041 10.983C152.784 10.589 152.655 10.1061 152.655 9.53409C152.655 9.04167 152.75 8.63636 152.939 8.31818C153.128 8 153.384 7.74811 153.706 7.5625C154.028 7.37689 154.388 7.23674 154.786 7.14205C155.183 7.04735 155.589 6.97538 156.001 6.92614C156.524 6.86553 156.948 6.81629 157.274 6.77841C157.6 6.73674 157.837 6.67045 157.984 6.57955C158.132 6.48864 158.206 6.34091 158.206 6.13636V6.09659C158.206 5.60038 158.066 5.21591 157.786 4.94318C157.509 4.67045 157.096 4.53409 156.547 4.53409C155.975 4.53409 155.524 4.66098 155.195 4.91477C154.869 5.16477 154.643 5.44318 154.518 5.75L152.922 5.38636C153.111 4.85606 153.388 4.42803 153.751 4.10227C154.119 3.77273 154.541 3.53409 155.018 3.38636C155.496 3.23485 155.998 3.15909 156.524 3.15909C156.873 3.15909 157.242 3.20076 157.632 3.28409C158.026 3.36364 158.393 3.51136 158.734 3.72727C159.079 3.94318 159.361 4.25189 159.581 4.65341C159.801 5.05114 159.911 5.56818 159.911 6.20455V12H158.251V10.8068H158.183C158.073 11.0265 157.909 11.2424 157.689 11.4545C157.469 11.6667 157.187 11.8428 156.842 11.983C156.498 12.1231 156.085 12.1932 155.604 12.1932ZM155.973 10.8295C156.443 10.8295 156.844 10.7367 157.178 10.5511C157.515 10.3655 157.77 10.1231 157.945 9.82386C158.123 9.52083 158.212 9.19697 158.212 8.85227V7.72727C158.151 7.78788 158.034 7.8447 157.859 7.89773C157.689 7.94697 157.494 7.99053 157.274 8.02841C157.054 8.0625 156.84 8.0947 156.632 8.125C156.424 8.15152 156.25 8.17424 156.109 8.19318C155.78 8.23485 155.479 8.30492 155.206 8.40341C154.937 8.50189 154.721 8.64394 154.558 8.82955C154.399 9.01136 154.32 9.25379 154.32 9.55682C154.32 9.97727 154.475 10.2955 154.786 10.5114C155.096 10.7235 155.492 10.8295 155.973 10.8295ZM162.173 12V3.27273H163.815V4.65909H163.906C164.065 4.18939 164.346 3.82008 164.747 3.55114C165.152 3.27841 165.611 3.14205 166.122 3.14205C166.228 3.14205 166.353 3.14583 166.497 3.15341C166.645 3.16098 166.76 3.17045 166.844 3.18182V4.80682C166.776 4.78788 166.654 4.76705 166.48 4.74432C166.306 4.7178 166.132 4.70455 165.957 4.70455C165.556 4.70455 165.198 4.78977 164.884 4.96023C164.573 5.12689 164.327 5.35985 164.145 5.65909C163.963 5.95455 163.872 6.29167 163.872 6.67045V12H162.173ZM172.903 3.27273V4.63636H168.136V3.27273H172.903ZM169.415 1.18182H171.114V9.4375C171.114 9.76705 171.163 10.0152 171.261 10.1818C171.36 10.3447 171.487 10.4564 171.642 10.517C171.801 10.5739 171.973 10.6023 172.159 10.6023C172.295 10.6023 172.415 10.5928 172.517 10.5739C172.619 10.5549 172.699 10.5398 172.756 10.5284L173.062 11.9318C172.964 11.9697 172.824 12.0076 172.642 12.0455C172.46 12.0871 172.233 12.1098 171.96 12.1136C171.513 12.1212 171.097 12.0417 170.71 11.875C170.324 11.7083 170.011 11.4508 169.773 11.1023C169.534 10.7538 169.415 10.3163 169.415 9.78977V1.18182ZM176.482 6.81818V12H174.783V3.27273H176.413V4.69318H176.521C176.722 4.23106 177.036 3.85985 177.464 3.57955C177.896 3.29924 178.44 3.15909 179.095 3.15909C179.69 3.15909 180.211 3.28409 180.658 3.53409C181.105 3.7803 181.451 4.14773 181.697 4.63636C181.944 5.125 182.067 5.72917 182.067 6.44886V12H180.368V6.65341C180.368 6.02083 180.203 5.52652 179.874 5.17045C179.544 4.81061 179.091 4.63068 178.516 4.63068C178.122 4.63068 177.771 4.71591 177.464 4.88636C177.161 5.05682 176.921 5.30682 176.743 5.63636C176.569 5.96212 176.482 6.35606 176.482 6.81818ZM188.107 12.1761C187.247 12.1761 186.506 11.9924 185.885 11.625C185.268 11.2538 184.79 10.733 184.453 10.0625C184.12 9.38826 183.953 8.59848 183.953 7.69318C183.953 6.79924 184.12 6.01136 184.453 5.32955C184.79 4.64773 185.26 4.11553 185.862 3.73295C186.468 3.35038 187.177 3.15909 187.987 3.15909C188.48 3.15909 188.957 3.24053 189.419 3.40341C189.881 3.56629 190.296 3.82197 190.663 4.17045C191.031 4.51894 191.321 4.97159 191.533 5.52841C191.745 6.08144 191.851 6.75379 191.851 7.54545V8.14773H184.913V6.875H190.186C190.186 6.42803 190.095 6.0322 189.913 5.6875C189.732 5.33902 189.476 5.06439 189.146 4.86364C188.821 4.66288 188.438 4.5625 187.999 4.5625C187.521 4.5625 187.105 4.67992 186.749 4.91477C186.396 5.14583 186.124 5.44886 185.93 5.82386C185.741 6.19508 185.646 6.59848 185.646 7.03409V8.02841C185.646 8.61174 185.749 9.10795 185.953 9.51705C186.161 9.92614 186.451 10.2386 186.822 10.4545C187.194 10.6667 187.627 10.7727 188.124 10.7727C188.446 10.7727 188.739 10.7273 189.004 10.6364C189.269 10.5417 189.499 10.4015 189.692 10.2159C189.885 10.0303 190.033 9.80114 190.135 9.52841L191.743 9.81818C191.614 10.2917 191.383 10.7064 191.05 11.0625C190.72 11.4148 190.305 11.6894 189.805 11.8864C189.309 12.0795 188.743 12.1761 188.107 12.1761ZM193.736 12V3.27273H195.378V4.65909H195.469C195.628 4.18939 195.908 3.82008 196.31 3.55114C196.715 3.27841 197.173 3.14205 197.685 3.14205C197.791 3.14205 197.916 3.14583 198.06 3.15341C198.207 3.16098 198.323 3.17045 198.406 3.18182V4.80682C198.338 4.78788 198.217 4.76705 198.043 4.74432C197.868 4.7178 197.694 4.70455 197.52 4.70455C197.118 4.70455 196.76 4.78977 196.446 4.96023C196.135 5.12689 195.889 5.35985 195.707 5.65909C195.526 5.95455 195.435 6.29167 195.435 6.67045V12H193.736Z" fill="url(#paint0_linear_1155_3610)"/>
<defs>
<linearGradient id="paint0_linear_1155_3610" x1="-1" y1="6" x2="199" y2="18" gradientUnits="userSpaceOnUse">
<stop stop-color="#FF6700"/>
<stop offset="1" stop-color="#91C499"/>
</linearGradient>
</defs>
</svg>

<svg xmlns="http://www.w3.org/2000/svg" width="199" height="13" fill="none" viewBox="0 0 199 13"><path fill="url(#a)" d="M.278.364H2.41l3.705 9.045h.136L9.955.364h2.13V12h-1.67V3.58h-.108l-3.432 8.403H5.489l-3.432-8.41h-.108V12H.279zm17.985 11.812q-1.29 0-2.222-.551a3.74 3.74 0 0 1-1.432-1.562q-.5-1.012-.5-2.37 0-1.341.5-2.363a3.9 3.9 0 0 1 1.41-1.597q.909-.574 2.125-.574.739 0 1.431.244.693.245 1.245.767.55.524.869 1.358.318.83.318 2.017v.603H15.07V6.875h5.272q0-.67-.272-1.187a2.06 2.06 0 0 0-.767-.824q-.49-.301-1.148-.301-.716 0-1.25.352a2.37 2.37 0 0 0-.818.909q-.284.556-.284 1.21v.994q0 .876.306 1.489.313.614.87.938.556.318 1.3.318.484 0 .881-.137.399-.141.688-.42t.443-.688l1.608.29q-.194.71-.693 1.245a3.36 3.36 0 0 1-1.244.823q-.745.29-1.7.29m9.39 0q-1.29 0-2.221-.551A3.74 3.74 0 0 1 24 10.063q-.5-1.012-.5-2.37 0-1.341.5-2.363a3.9 3.9 0 0 1 1.41-1.597q.908-.574 2.124-.574.739 0 1.432.244.693.245 1.244.767.551.524.87 1.358.318.83.318 2.017v.603H24.46V6.875h5.273q0-.67-.273-1.187a2.06 2.06 0 0 0-.767-.824q-.488-.301-1.148-.301-.716 0-1.25.352a2.36 2.36 0 0 0-.818.909q-.285.556-.284 1.21v.994q0 .876.307 1.489.312.614.87.938.555.318 1.3.318.483 0 .881-.137.398-.141.688-.42t.443-.688l1.608.29q-.194.71-.693 1.245a3.36 3.36 0 0 1-1.245.823q-.744.29-1.699.29m9.703-8.903v1.363H32.59V3.273zm-3.488-2.091h1.699v8.256q0 .494.148.744a.77.77 0 0 0 .38.335q.24.085.517.085.205 0 .358-.028l.239-.046.307 1.404a3 3 0 0 1-.42.114q-.274.062-.683.068a3 3 0 0 1-1.25-.239 2.14 2.14 0 0 1-.937-.773q-.358-.523-.358-1.312zm8.84-.818h1.995l3.04 5.29h.125l3.04-5.29h1.994L48.68 7.432V12h-1.75V7.432zm13.954 11.812q-1.227 0-2.142-.562a3.8 3.8 0 0 1-1.42-1.574q-.507-1.011-.506-2.364 0-1.358.505-2.375a3.8 3.8 0 0 1 1.42-1.58q.916-.562 2.143-.562t2.142.563 1.42 1.58q.507 1.016.506 2.374 0 1.353-.506 2.364a3.8 3.8 0 0 1-1.42 1.574q-.915.562-2.142.562m.006-1.426q.796 0 1.318-.42t.773-1.12q.255-.699.255-1.54 0-.834-.256-1.534a2.5 2.5 0 0 0-.772-1.13q-.523-.426-1.318-.426-.802 0-1.33.426a2.54 2.54 0 0 0-.778 1.13q-.25.7-.25 1.534 0 .841.25 1.54.256.7.778 1.12.528.42 1.33.42m11.487-2.37V3.274h1.704V12h-1.67v-1.511h-.091q-.3.698-.966 1.164-.66.46-1.642.46-.84 0-1.489-.369-.642-.375-1.01-1.108-.365-.732-.365-1.812V3.273h1.7v5.346q0 .893.494 1.42.494.53 1.284.53.477 0 .949-.24.477-.239.79-.721.318-.483.312-1.227M72.142 12V3.273h1.642v1.386h.091q.24-.705.84-1.108.609-.41 1.376-.409a7 7 0 0 1 .722.04v1.625a3 3 0 0 0-.364-.063 3.5 3.5 0 0 0-.523-.04q-.602 0-1.074.256a1.9 1.9 0 0 0-1.011 1.71V12zm18.386-7.96a3.6 3.6 0 0 0-.443-.926 2.83 2.83 0 0 0-1.522-1.154 3.5 3.5 0 0 0-1.063-.153q-.983 0-1.773.506-.79.505-1.25 1.482-.454.972-.454 2.381 0 1.414.46 2.392t1.261 1.483 1.824.506q.95 0 1.654-.386a2.7 2.7 0 0 0 1.096-1.091q.392-.71.392-1.67l.455.084h-3.33V6.045h4.574V7.37q0 1.467-.625 2.546a4.26 4.26 0 0 1-1.716 1.659q-1.09.585-2.5.585-1.58 0-2.772-.727-1.188-.728-1.853-2.063-.665-1.34-.665-3.181 0-1.393.387-2.5.386-1.11 1.085-1.881A4.7 4.7 0 0 1 85.403.619 5.2 5.2 0 0 1 87.49.205q.943 0 1.755.278.818.279 1.455.79a4.47 4.47 0 0 1 1.63 2.767zM94.501 12V3.273h1.642v1.386h.091q.24-.705.841-1.108.609-.41 1.375-.409a7 7 0 0 1 .722.04v1.625a3 3 0 0 0-.364-.063 3.5 3.5 0 0 0-.523-.04q-.602 0-1.073.256A1.9 1.9 0 0 0 96.2 6.67V12zm9.505.176q-1.228 0-2.142-.562a3.8 3.8 0 0 1-1.421-1.574q-.505-1.011-.505-2.364 0-1.358.505-2.375a3.8 3.8 0 0 1 1.421-1.58q.914-.562 2.142-.562t2.142.563q.915.562 1.42 1.58.506 1.016.506 2.374 0 1.353-.506 2.364a3.8 3.8 0 0 1-1.42 1.574q-.915.562-2.142.562m.005-1.426q.796 0 1.319-.42a2.46 2.46 0 0 0 .772-1.12q.256-.699.256-1.54 0-.834-.256-1.534a2.5 2.5 0 0 0-.772-1.13q-.523-.426-1.319-.426-.801 0-1.329.426a2.54 2.54 0 0 0-.779 1.13q-.25.7-.25 1.534 0 .841.25 1.54.256.7.779 1.12.528.42 1.329.42m7.586 1.25-2.569-8.727h1.756l1.71 6.409h.086l1.715-6.41h1.756l1.705 6.381h.085l1.699-6.38h1.755L118.733 12H117l-1.773-6.301h-.13L113.324 12zm15.385-8.727v1.363h-4.768V3.273zm-3.489-2.091h1.699v8.256q0 .494.147.744a.78.78 0 0 0 .381.335q.239.085.517.085.205 0 .358-.028l.239-.046.307 1.404a3 3 0 0 1-.421.114 3.3 3.3 0 0 1-.682.068 3 3 0 0 1-1.25-.239 2.14 2.14 0 0 1-.937-.773q-.358-.523-.358-1.312zm7.254 5.636V12h-1.699V.364h1.676v4.33h.108q.307-.705.938-1.12.63-.415 1.648-.415.897 0 1.568.37.676.369 1.045 1.102.375.727.375 1.818V12h-1.699V6.653q0-.96-.494-1.488-.494-.534-1.375-.534-.602 0-1.079.255-.472.255-.745.75-.267.489-.267 1.182M143.044 12V.364h4.148q1.358 0 2.25.494t1.335 1.352q.443.853.443 1.92 0 1.074-.449 1.933-.442.851-1.341 1.352-.891.494-2.244.494h-2.852V6.42h2.693q.858 0 1.392-.295.534-.3.784-.818t.25-1.176q0-.66-.25-1.17a1.8 1.8 0 0 0-.79-.802q-.534-.29-1.409-.29H144.8V12zm12.56.193a3.6 3.6 0 0 1-1.5-.307 2.53 2.53 0 0 1-1.063-.903q-.386-.591-.386-1.449 0-.739.284-1.216t.767-.755a4 4 0 0 1 1.08-.42q.596-.144 1.215-.217l1.273-.148q.49-.062.71-.198.222-.137.222-.444v-.04q0-.744-.42-1.153-.416-.41-1.239-.409-.858 0-1.352.38-.49.376-.677.836l-1.596-.364q.284-.795.829-1.284.552-.494 1.267-.716.717-.227 1.506-.227.523 0 1.108.125.59.12 1.102.443.517.324.847.926.33.597.33 1.552V12h-1.66v-1.193h-.068q-.165.33-.494.647-.33.32-.847.529t-1.238.21m.369-1.364q.704 0 1.205-.278.505-.278.767-.727.267-.455.267-.972V7.727q-.091.091-.353.17-.255.075-.585.131-.33.051-.642.097l-.523.068a4.2 4.2 0 0 0-.903.21q-.404.148-.648.427-.238.272-.238.727 0 .63.466.954.465.32 1.187.319m6.2 1.171V3.273h1.642v1.386h.091q.239-.705.841-1.108.608-.41 1.375-.409a7 7 0 0 1 .722.04v1.625a3 3 0 0 0-.364-.063 3.5 3.5 0 0 0-.523-.04q-.602 0-1.073.256a1.9 1.9 0 0 0-1.012 1.71V12zm10.73-8.727v1.363h-4.767V3.273zm-3.488-2.091h1.699v8.256q0 .494.147.744a.78.78 0 0 0 .381.335q.238.085.517.085.204 0 .358-.028l.239-.046.306 1.404a3 3 0 0 1-.42.114 3.3 3.3 0 0 1-.682.068 3 3 0 0 1-1.25-.239 2.14 2.14 0 0 1-.937-.773q-.358-.523-.358-1.312zm7.067 5.636V12h-1.699V3.273h1.63v1.42h.108q.301-.693.943-1.113.648-.42 1.631-.42.892 0 1.563.374.67.37 1.039 1.102.37.733.37 1.813V12h-1.699V6.653q0-.948-.494-1.483-.495-.54-1.358-.54-.591 0-1.052.256-.454.255-.721.75-.261.489-.261 1.182m11.625 5.358q-1.29 0-2.222-.551a3.74 3.74 0 0 1-1.432-1.562q-.5-1.012-.5-2.37 0-1.341.5-2.363a3.9 3.9 0 0 1 1.409-1.597q.91-.574 2.125-.574.74 0 1.432.244.693.245 1.244.767.552.524.87 1.358.318.83.318 2.017v.603h-6.938V6.875h5.273q0-.67-.273-1.187a2.05 2.05 0 0 0-.767-.824q-.488-.301-1.147-.301-.717 0-1.25.352a2.37 2.37 0 0 0-.819.909 2.6 2.6 0 0 0-.284 1.21v.994q0 .876.307 1.489.312.614.869.938.557.318 1.302.318.483 0 .88-.137.398-.141.688-.42t.443-.688l1.608.29q-.194.71-.693 1.245-.495.528-1.245.823-.744.29-1.698.29m5.629-.176V3.273h1.642v1.386h.091q.238-.705.841-1.108.607-.41 1.375-.409a7 7 0 0 1 .721.04v1.625a3 3 0 0 0-.363-.063 3.5 3.5 0 0 0-.523-.04q-.603 0-1.074.256a1.9 1.9 0 0 0-1.011 1.71V12z"/><defs><linearGradient id="a" x1="-1" x2="199" y1="6" y2="18" gradientUnits="userSpaceOnUse"><stop stop-color="#ff6700"/><stop offset="1" stop-color="#91c499"/></linearGradient></defs></svg>
